X: 21178
T: Kathryn's Favourite
R: jig
M: 6/8
K: Amixolydian
~D3 AGF|G2D CDG|B2c BAG|AGE DEA|
~D3 AGF|G2A =FEC|DCA GEC|DCE D3:|
~D3 AGA|d3-ded|c3-c2G|GFD-D3|
~D3 ADG|=FEF DEF|ECA GEC|DCE ~D3|
~D3AGA|d3-ded|c3cde|d2B-B3|
DAD GAc-|cAc d3|dcA GAc|B3B3||

